src/components/connection-modal/icons/enter-update.svg

<svg width="20" height="20" viewBox="0 0 20 20" fill="none" xmlns="http://www.w3.org/2000/svg">
    <path fill-rule="evenodd" clip-rule="evenodd"
        d="M15.7836 5.58724V11.727C15.769 12.2168 15.4786 12.6343 15.0426 12.8063C14.6075 12.9794 14.1304 12.8777 13.7951 12.5424L12.6307 11.378L7.7648 15.0569C7.02568 15.6259 5.95905 15.5546 5.28934 14.8849C5.23166 14.8272 5.17691 14.7646 5.12607 14.7001C4.61671 14.0011 4.6216 13.0635 5.12803 12.4104L8.78646 7.53378L7.6729 6.42022C7.33365 6.08097 7.23099 5.57942 7.41088 5.14338C7.59273 4.70539 8.00531 4.43164 8.48827 4.43164H14.628C14.9321 4.43262 15.2215 4.55385 15.4414 4.77382C15.6614 4.9938 15.7827 5.28319 15.7836 5.58724Z"
        fill="white" />
</svg>

<svg width="20" height="20" fill="none" xmlns="http://www.w3.org/2000/svg"><path fill-rule="evenodd" clip-rule="evenodd" d="M15.784 5.587v6.14c-.015.49-.305.907-.741 1.08a1.143 1.143 0 0 1-1.248-.265l-1.164-1.164-4.866 3.679a1.887 1.887 0 0 1-2.639-.357c-.51-.699-.504-1.636.002-2.29l3.658-4.876L7.673 6.42c-.34-.339-.442-.84-.262-1.277a1.145 1.145 0 0 1 1.077-.711h6.14c.304 0 .594.122.813.342.22.22.342.51.343.813z" fill="#fff"/></svg>
